X:18198
T:Valse  Denis - Valse/Walzer/Waltz
C:traditionell
Z:abc transcription Simon Wascher
N:please mail errors to simon.wascher@chello.at
M:3/4
L:1/4
K:G
d2^c|d2e|d2B|g3|
d2^c|deB|d2^c|c3|
c2B|c2d|c2A|f3|
d^cd|fee/c/|B3-|B3|
d2^c|d2e|d2B|g3|
ecd|e2b|a3|a3|
gfa|gfe|dbg|d3|
ecg|fda|g/f/f/^f/b/a/|g3|
g3:|
|:de/f/g/a/|ba/g/f/e/|d/e/d/e/d/B/|c3|
d/e/f/g/a/b/|c'/b/a/g/f/e/|d/e/d/c/A/c/|B2G|
de/f/g/a/|ba/g/f/e/|d/e/d/e/d/B/|c3|
d/e/f/g/a/b/|c'/b/a/g/f/e/|dfa|g3:|
